X: 1
T: JUDY'S -- REEL
B: Cole's 1000 Fiddle Tunes
R: reel
M: 2/4
L: 1/16
Z: Contributed 20000418040045 by John Chambers jcsd:world.std.com
K: D
uD2 \
| FAA(B AF).E.D | FAAB .A(Bde) | (fB).B.A Bcde | (fB).B.A BcdA |
| FAAB AFED | FAAB ABde | (fB).B.A BcdA | AFEF D2 :|
veg \
| fga(b af).d.e | fdad bdfd | efga beef | ((3gfe)be gfeg |
| fgaf bfaf | defd efde | fBBA BcdA | AFEF D2 :|
